packages/core/src/svgs/tokens/branded/ML.svg

<svg width="24" height="24" viewBox="0 0 24 24" fill="none" xmlns="http://www.w3.org/2000/svg">
<path d="M2 2L6.00001 3.68V20.42L2 22V2ZM7.33334 9.99995L11.3334 11.68V18.42L7.33334 20V9.99995ZM22 22L18 20.32V3.58L22 2V22ZM16.6668 14.0001L12.6666 12.3201V5.58001L16.6668 4V14.0001Z" fill="#11967F"/>
</svg>

<svg xmlns="http://www.w3.org/2000/svg" width="24" height="24" fill="none" viewBox="0 0 24 24">
    <path fill="#11967F" d="m2 2 4 1.68v16.74L2 22zm5.333 8 4 1.68v6.74l-4 1.58zM22 22l-4-1.68V3.58L22 2zm-5.333-8-4-1.68V5.58l4-1.58z"/>
</svg>
